src/assets/icons/sound-on.svg

<svg xmlns="http://www.w3.org/2000/svg" viewBox="0 0 32 32"><path d="M16 4.16a8 8 0 00-8 7.75v8.66l-3.84 3.84h23.67L24 20.57v-8.41a8 8 0 00-8-8zm2 22.25h-4a2 2 0 004 0zM16 2.16a10 10 0 0110 9.72v7.86l4 4v2.67H20a4 4 0 01-8 0H2v-2.67l4-4v-7.58a10 10 0 0110-10z"/></svg>

<svg xmlns="http://www.w3.org/2000/svg" width="32" height="32" viewBox="0 0 32 32"><g id="sound-on"><path d="M16,4.16a8,8,0,0,0-8,7.75v8.66L4.16,24.41H27.83L24,20.57V12.16A8,8,0,0,0,16,4.16Zm2,22.25H14a2,2,0,0,0,4,0ZM16,2.16a10,10,0,0,1,10,9.72v7.86l4,4v2.67H20a4,4,0,0,1-8,0H2V23.74l4-4V12.16A10,10,0,0,1,16,2.16Z"/></g></svg>
